X:1
T:Title
%%score ( 1 2 ) ( 3 4 )
L:1/8
Q:1/4=105
M:2/4
K:C
V:1 treble nm="Grand Piano, Staff 1"
V:2 treble 
V:3 bass nm="Choir Pad, Lanesboro, CM"
V:4 bass 
V:1
 [Ec]2 GG | [FA]2 [FB][Ec] | [DG]2 [DF]2 | [CE]3 G | z2 .f2 | [Ec]2 [DB]2 | [Ec]3 [Ge] | %7
w: By~Robert~William~Dixon~(1750\-1825) * *|||||||
 [Gd]2 [GB]2 | [Gc]3 [Gd] | [Ge][Fd] [Ec][DB] | [CA]3 G | F-[FA] [Gc][Ad] | [Ge]2 [Fd]2 | [Ec]4- | %14
w: |||||||
 [Ec]4 |] %15
w: |
V:2
 x4 | x4 | x4 | x4 | [FA]2 F-[Fd] | x4 | x4 | x4 | x4 | x4 | x4 | .G2 z2 | x4 | x4 | x4 |] %15
V:3
 [G,,C,]2 [C,E,][C,E,] | [C,E,]2 D,C, | [G,,B,,]2 G,,2 | [G,,C,]3 [C,E,] | [A,,F,]2 [A,,D,]2 | %5
 [G,,G,]2 G,,2 | [G,,C,]3 C, | [B,,G,]2 G,F, | [C,E,]3 [B,,G,] | z2 E,2 | [A,,C,]3 C, | F,2 .E,2 | %12
 [C,G,]2 [G,,B,,]2 | C,4- | C,4 |] %15
V:4
 x4 | z2 G,,2 | x4 | x4 | x4 | x4 | x4 | z2 D,2 | x4 | C,[B,,D,] A,,^G,, | x4 | C,D, C,-[C,F,] | %12
 x4 | x4 | x4 |] %15

